data/theme/google-logo-symbolic.svg

<?xml version="1.0" encoding="UTF-8" standalone="no"?>
<!-- Generator: Adobe Illustrator 16.0.0, SVG Export Plug-In . SVG Version: 6.00 Build 0)  -->

<svg
   xmlns:dc="http://purl.org/dc/elements/1.1/"
   xmlns:cc="http://creativecommons.org/ns#"
   xmlns:rdf="http://www.w3.org/1999/02/22-rdf-syntax-ns#"
   xmlns:svg="http://www.w3.org/2000/svg"
   xmlns="http://www.w3.org/2000/svg"
   xmlns:sodipodi="http://sodipodi.sourceforge.net/DTD/sodipodi-0.dtd"
   xmlns:inkscape="http://www.inkscape.org/namespaces/inkscape"
   version="1.1"
   id="Google_x2B_"
   x="0px"
   y="0px"
   width="55"
   height="19"
   viewBox="0 0 55 19"
   enable-background="new 0 0 57 21"
   xml:space="preserve"
   inkscape:version="0.48.4 r9939"
   sodipodi:docname="google-logo-symbolic.svg"><metadata
     id="metadata3070"><rdf:RDF><cc:Work
         rdf:about=""><dc:format>image/svg+xml</dc:format><dc:type
           rdf:resource="http://purl.org/dc/dcmitype/StillImage" /></cc:Work></rdf:RDF></metadata><defs
     id="defs3068" /><sodipodi:namedview
     pagecolor="#ffffff"
     bordercolor="#666666"
     borderopacity="1"
     objecttolerance="10"
     gridtolerance="10"
     guidetolerance="10"
     inkscape:pageopacity="0"
     inkscape:pageshadow="2"
     inkscape:window-width="1280"
     inkscape:window-height="613"
     id="namedview3066"
     showgrid="false"
     inkscape:zoom="18.982456"
     inkscape:cx="28.5"
     inkscape:cy="10.5"
     inkscape:window-x="0"
     inkscape:window-y="0"
     inkscape:window-maximized="1"
     inkscape:current-layer="Google_x2B_" /><g
     id="g3052"
     transform="translate(-0.99979527,-1)"><path
       d="M 55.475,8.059 C 55.763,7.94 55.785,7.919 55.679,7.615 55.073,5.882 52.786,4.945 50.838,5.757 49.302,6.398 48.19,8.022 48.19,9.838 c 0,2.448 1.767,4.625 4.166,4.625 1.101,0 1.884,-0.152 2.579,-0.594 0.15,-0.139 0.991,-0.811 1,-0.956 0,-0.033 -0.118,0.071 -0.302,0.172 -0.542,0.286 -1.354,0.396 -1.993,0.407 -1.29,0.023 -2.319,-0.855 -2.993,-1.9 C 50.215,10.921 49.937,10.154 49.866,9.329 49.76,8.061 50.07,6.603 51.5,6.245 c 0.954,-0.238 1.855,0.296 2.206,1.213 0.158,0.416 0.063,0.633 -0.322,0.792 l -3.444,1.438 1.174,0.075 c 1.398,-0.581 2.963,-1.124 4.361,-1.704 l 0,0 z"
       id="path3054"
       inkscape:connector-curvature="0" /><path
       d="m 44.873,1 c 0.874,0 1.698,0 2.572,0 -0.358,0.232 -0.479,0.328 -0.633,0.571 -0.109,0.175 -0.138,0.505 -0.158,0.805 -0.15,3.432 -0.06,6.891 -0.082,10.325 0.016,0.935 0.382,0.826 1.599,0.791 -0.183,0.154 -0.48,0.462 -0.711,0.594 -1.098,0 -2.146,-0.023 -3.243,-0.023 0.413,-0.427 0.624,-0.702 0.596,-1.77 C 44.835,8.706 44.693,5.263 44.912,1.808 44.398,1.823 43.931,1.815 43.414,1.83 43.903,1.578 44.363,1.224 44.873,1 l 0,0 z"
       id="path3056"
       inkscape:connector-curvature="0" /><path
       d="m 42.264,14.04 c -0.566,-0.423 -1.545,-1.006 -1.483,-1.808 0.021,-0.275 0.216,-0.561 0.602,-0.788 0.679,-0.397 1.141,-0.921 1.37,-1.529 C 42.994,9.271 42.961,8.572 42.723,7.94 42.5,7.347 42.094,6.815 41.566,6.446 h 1.252 l 1.1,-0.711 C 42.348,5.723 40.87,5.722 39.269,5.722 c -1.537,0 -2.923,0.743 -3.545,2.082 -0.288,0.616 -0.402,1.404 -0.218,2.157 0.363,1.484 1.913,2.466 3.417,2.239 0.165,-0.025 0.218,-0.078 0.133,0.075 -0.333,0.583 -0.09,1.457 0.562,1.885 -0.433,-0.029 -0.893,-0.041 -1.409,0.021 -1.839,0.215 -3.876,1.16 -3.77,3.145 0.082,1.536 1.634,2.664 4.096,2.674 1.982,-0.006 3.848,-0.634 4.633,-2.039 0.82,-1.47 0.336,-2.992 -0.904,-3.921 z M 37.262,9.529 c -0.428,-1.68 0.015,-2.747 1.05,-3.068 1.227,-0.381 2.539,0.726 2.837,2.539 0.197,1.188 -0.105,2.314 -1.18,2.612 -1.099,0.304 -2.316,-0.551 -2.707,-2.083 z m 4.876,7.828 c -0.106,0.931 -0.999,1.664 -2.527,1.756 -1.633,0.099 -3.83,-0.547 -3.422,-2.694 0.216,-1.143 1.735,-1.735 2.988,-1.776 0.349,-0.011 0.701,0.017 1.049,0.028 0.186,0.137 0.377,0.268 0.576,0.394 1.08,0.684 1.425,1.521 1.336,2.292 z"
       id="path3058"
       inkscape:connector-curvature="0" /><path
       d="M 34.561,9.747 C 34.423,7.45 32.883,5.488 29.933,5.488 c -2.553,0 -4.637,1.991 -4.637,4.433 0,2.792 2.425,4.704 5.203,4.41 2.31,-0.248 4.199,-2.295 4.062,-4.584 z m -3.747,3.891 c -1.545,0.358 -3.185,-0.924 -3.593,-3.104 -0.45,-2.39 0.293,-3.964 1.753,-4.351 1.728,-0.458 3.49,1.287 3.748,3.858 0.169,1.684 -0.396,3.248 -1.908,3.597 z"
       id="path3060"
       inkscape:connector-curvature="0" /><path
       d="M 24.503,9.747 C 24.364,7.45 22.806,5.488 19.821,5.488 c -2.583,0 -4.692,1.991 -4.692,4.433 0,2.792 2.454,4.704 5.265,4.41 2.337,-0.248 4.248,-2.295 4.109,-4.584 z m -3.79,3.891 c -1.564,0.358 -3.223,-0.924 -3.637,-3.104 -0.455,-2.39 0.296,-3.964 1.773,-4.351 1.749,-0.458 3.532,1.287 3.793,3.858 0.17,1.684 -0.401,3.248 -1.929,3.597 z"
       id="path3062"
       inkscape:connector-curvature="0" /><path
       d="M 12.403,4.26 13.745,2.892 C 11.467,1.006 7.561,0.759 4.972,2.067 2.72,3.206 1.083,5.467 1.003,7.991 c -0.083,2.658 1.46,4.76 3.027,5.817 2.588,1.744 7.074,1.356 9.777,-0.007 l -0.001,-0.254 0,0 v -2.786 l 0.629,-0.736 h -3.937 l -1.458,0.821 2.832,-0.085 c 0,0.792 0,1.661 0,2.455 0,0.349 0.005,0.405 -0.569,0.59 C 10.494,14.017 9.582,14.059 8.749,13.99 5.922,13.753 3.766,11.52 3.256,8.734 2.771,6.09 4.018,3.589 6.126,2.557 7.155,2.053 8.391,1.817 9.729,2.245 c 0.839,0.269 1.602,0.752 2.266,1.419 l -0.463,0.84 0.871,-0.244 0,0 z"
       id="path3064"
       inkscape:connector-curvature="0" /></g></svg>

<?xml version="1.0" encoding="utf-8"?>
<!-- Generator: Adobe Illustrator 16.0.0, SVG Export Plug-In . SVG Version: 6.00 Build 0)  -->
<!DOCTYPE svg PUBLIC "-//W3C//DTD SVG 1.1//EN" "http://www.w3.org/Graphics/SVG/1.1/DTD/svg11.dtd">
<svg version="1.1" id="Google_x2B_" xmlns="http://www.w3.org/2000/svg" xmlns:xlink="http://www.w3.org/1999/xlink" x="0px"
	 y="0px" width="57px" height="21px" viewBox="0 0 57 21" enable-background="new 0 0 57 21" xml:space="preserve">
<g>
	<path d="M55.475,8.059c0.288-0.119,0.31-0.14,0.204-0.444c-0.606-1.733-2.893-2.67-4.841-1.858
		c-1.536,0.641-2.648,2.265-2.648,4.081c0,2.448,1.767,4.625,4.166,4.625c1.101,0,1.884-0.152,2.579-0.594
		c0.15-0.139,0.991-0.811,1-0.956c0-0.033-0.118,0.071-0.302,0.172c-0.542,0.286-1.354,0.396-1.993,0.407
		c-1.29,0.023-2.319-0.855-2.993-1.9c-0.432-0.671-0.71-1.438-0.781-2.263C49.76,8.061,50.07,6.603,51.5,6.245
		c0.954-0.238,1.855,0.296,2.206,1.213c0.158,0.416,0.063,0.633-0.322,0.792L49.94,9.688l1.174,0.075
		C52.512,9.182,54.077,8.639,55.475,8.059L55.475,8.059z"/>
	<path d="M44.873,1c0.874,0,1.698,0,2.572,0c-0.358,0.232-0.479,0.328-0.633,0.571c-0.109,0.175-0.138,0.505-0.158,0.805
		c-0.15,3.432-0.06,6.891-0.082,10.325c0.016,0.935,0.382,0.826,1.599,0.791c-0.183,0.154-0.48,0.462-0.711,0.594
		c-1.098,0-2.146-0.023-3.243-0.023c0.413-0.427,0.624-0.702,0.596-1.77c0.022-3.587-0.12-7.03,0.099-10.485
		c-0.514,0.015-0.981,0.007-1.498,0.022C43.903,1.578,44.363,1.224,44.873,1L44.873,1z"/>
	<path d="M42.264,14.04c-0.566-0.423-1.545-1.006-1.483-1.808c0.021-0.275,0.216-0.561,0.602-0.788
		c0.679-0.397,1.141-0.921,1.37-1.529c0.241-0.644,0.208-1.343-0.03-1.975c-0.223-0.593-0.629-1.125-1.157-1.494h1.252l1.1-0.711
		c-1.57-0.012-3.048-0.013-4.649-0.013c-1.537,0-2.923,0.743-3.545,2.082c-0.288,0.616-0.402,1.404-0.218,2.157
		c0.363,1.484,1.913,2.466,3.417,2.239c0.165-0.025,0.218-0.078,0.133,0.075c-0.333,0.583-0.09,1.457,0.562,1.885
		c-0.433-0.029-0.893-0.041-1.409,0.021c-1.839,0.215-3.876,1.16-3.77,3.145c0.082,1.536,1.634,2.664,4.096,2.674
		c1.982-0.006,3.848-0.634,4.633-2.039C43.988,16.491,43.504,14.969,42.264,14.04z M37.262,9.529
		c-0.428-1.68,0.015-2.747,1.05-3.068C39.539,6.08,40.851,7.187,41.149,9c0.197,1.188-0.105,2.314-1.18,2.612
		C38.87,11.916,37.653,11.061,37.262,9.529z M42.138,17.357c-0.106,0.931-0.999,1.664-2.527,1.756
		c-1.633,0.099-3.83-0.547-3.422-2.694c0.216-1.143,1.735-1.735,2.988-1.776c0.349-0.011,0.701,0.017,1.049,0.028
		c0.186,0.137,0.377,0.268,0.576,0.394C41.882,15.749,42.227,16.586,42.138,17.357z"/>
	<path d="M34.561,9.747c-0.138-2.297-1.678-4.259-4.628-4.259c-2.553,0-4.637,1.991-4.637,4.433c0,2.792,2.425,4.704,5.203,4.41
		C32.809,14.083,34.698,12.036,34.561,9.747z M30.814,13.638c-1.545,0.358-3.185-0.924-3.593-3.104
		c-0.45-2.39,0.293-3.964,1.753-4.351c1.728-0.458,3.49,1.287,3.748,3.858C32.891,11.725,32.326,13.289,30.814,13.638z"/>
	<path d="M24.503,9.747c-0.139-2.297-1.697-4.259-4.682-4.259c-2.583,0-4.692,1.991-4.692,4.433c0,2.792,2.454,4.704,5.265,4.41
		C22.731,14.083,24.642,12.036,24.503,9.747z M20.713,13.638c-1.564,0.358-3.223-0.924-3.637-3.104
		c-0.455-2.39,0.296-3.964,1.773-4.351c1.749-0.458,3.532,1.287,3.793,3.858C22.812,11.725,22.241,13.289,20.713,13.638z"/>
	<path d="M12.403,4.26l1.342-1.368c-2.278-1.886-6.184-2.133-8.773-0.825c-2.252,1.139-3.889,3.4-3.969,5.924
		c-0.083,2.658,1.46,4.76,3.027,5.817c2.588,1.744,7.074,1.356,9.777-0.007l-0.001-0.254l0,0v-2.786l0.629-0.736h-3.937L9.04,10.846
		l2.832-0.085c0,0.792,0,1.661,0,2.455c0,0.349,0.005,0.405-0.569,0.59c-0.809,0.211-1.721,0.253-2.554,0.184
		c-2.827-0.237-4.983-2.47-5.493-5.256C2.771,6.09,4.018,3.589,6.126,2.557c1.029-0.504,2.265-0.74,3.603-0.312
		c0.839,0.269,1.602,0.752,2.266,1.419l-0.463,0.84L12.403,4.26L12.403,4.26z"/>
</g>
</svg>
